X:1
T:Title
L:1/8
M:6/8
K:Eb
V:1 treble nm="Grand Piano"
V:1
 z3 z2[Q:1/4=140] C | C2 E G3 | c2 c B3 | A3- A2 D | D2 F A3 | B2 B A3 | G3- G2 B | B2 A G2 B | %8
 F3- F2 A | A2 G F2 A | E3- E2 A | G2 F E3 | D3 C3 | =B,3 E2 D | C6 | z z/ C3/2 C3/2D3/2 | =E3 F3 | %17
 G3 A3/2G3/2 | F6- | F3/2A3/2 G3/2_G3/2 | G3 E3 | G3 C3 | E6- | E3/2D3/2 D3/2E3/2 | F3 G3 | A3 d3 | %26
 =B6- | B3/2d3/2 =B3/2A3/2 | F3 D3 | F3 A3 | G6- | G3/2G3/2 A3/2G3/2 | F3 G3 | E3 F3/2E3/2 | D6- | %35
 D3/2F3/2 G3/2F3/2 | E3 F3 | D3 E3/2D3/2 | C6- | C3/2C3/2 C3/2D3/2 | =E3 F3 | G3 A3/2=B3/2 | c6- | %43
 c3/2=B3/2 A3/2G3/2 | F3 D3 | E3 D3 | C6 |] %47

